X:Transte
R:Transe touritou Miritou mailou Miilel pariilelle@frerer
M:Tranc


*****************************


2100 0 2.0100822 

<stariel
M:Frande
R:Frande
R:Frande
R:Frande
R:Frande
R:Frande
R:Frande
R:Frande
R:Frande
R:Frande
R:Fran


*****************************


2200 0 1.5658157 

<staritile@free
M:F/8
L:F/8
K:Farandole
M:F/8
K:Farandole
M:F/8
K:Farandole
M:F/8
K:Farandole de darititi


*****************************


2300 0 2.8743985 

<starinelle@fren
W:Pranle de de de de de | d2 d2 | d2 d2 | d2 d2 | d2 c2 | B2 A2 | B2 A2 | A2 B | B2 B B 


*****************************


2400 0 3.2950797 

<stariou Marilou Mariilou Mar cou cou cou cou couriou Milou cou cou cou cou cou cou cou cou couriilou Mou


*****************************


2500 0 3.0929253 

<starien pan taile paran pailelle@frereren
M:6/8
T:Farande
C:Prance
C:Prance
C:Prance
C:Prance
C:Prance
C


*****************************


2600 0 1.32841 

<starielle@freren
M:1/4
T:Farance
A:Prance
C:Prance
C:Prance
C:Carance
C:France
C:Trance
C:Prance
C:Tranc


*****************************


2700 0 2.3347101 

<starinen Maillellele@fren
M:F/8
L:Trance
A:Provence
C:Trance
C:Trance
C:Trance
C:Trance
C:Trance
C:Tranc


*****************************


2800 0 2.0270698 

<starielle@free.fr
M:1/8
K:1
L:1
L:1
K:Bb
K:Bb
BB BB BB BB BB B2 BB BB BB BB BB BB BB BB BB BB BB BB B2 B


*****************************


2900 0 1.706754 

<starielle@free.fr
M:1/8
K:1/8
K:1
V:1
V:1
V:1
V:1
L:1/8
K:Fb
V:Faratoute
A:Prouete
A:Provence
C:Trance
C


*****************************


3000 0 1.8724716 

<staritile@free.fr
M:1/8
K:1
L:1/8
K:Fb
V:Farou de de | d2 | d2 | d2 | d2 | d2 | d2 | d2 | d2 | d2 | c2 |


*****************************


3100 0 1.67121 

<staritile@free.fr
M:1/8
K:1
L:1/8
K:1
L:1
L:1
K:1
L:1
L:1
K:1
L:1
K:1
L:1
L:1
K:1
K:1
V:1
K:1
K:1
K:1
L:


*****************************


3200 0 1.968493 

<starielle@free.fr
M:1/8
K:1
L:1/8
K:1
K:1
L:1
V:1
V:1
V:1
L:1
L:11
K:1
K:1
L:1
L:1
L:1
L:1
L:1
L:1
L:1
L


*****************************


3300 0 2.2756732 

<staritile@free.fr
M:1/8
K:1/8
K:Bb
V:Galoubet
d2d2 | d2d2 | B2B2B2 | B2B2B2 | B2B2B2 | B2B2B2 | B2B2B2 |


*****************************


3400 0 1.1268915 

<stariel par Michel BELLON - 2005-03--02
Z:Pour toute obser Michel BELLON - 2005-03--02
Z:Pour toute obse


*****************************


3500 0 2.067757 

<starit pallou Michel BELLON - 2005-00--2
Z:Pour toute obser tatou ourence
C:Trance
C:Trance
C:Trance
C:T


*****************************


3600 0 2.9390578 

<staritel
M:1/4
L:1/8
K:Bb
V:Bb
V:Galouriet
d2d2 | e2d2 | B2B2B2 | B2B2B2 | B2B2B2 | B2B2B2 | B2B2B2 | B2


*****************************


3700 0 1.9973073 

<starit? par Michel BELLON - 2005-05-02
Z:Pour toute observation mailto:galouvielle@free.fr
M:2/4
L:1/8
K


*****************************


3800 0 1.419312 

<staritalouvielle@free.fr
M:2/4
L:1/8
K:Bb
K:Bb
B | B2 | B2 B2 | c2 c>d | c2 c>c | c2 c>c | c2 c>d | c2 c


*****************************


3900 0 0.91166246 

<starig? eele.fffef|ffefe|(3BBBBBBBB|BBBBBBBBB | B2B2B2B2B2|
B2B2B2B2B2B2|B2B2B2B2B2|
B2B2B2B2B2|B2B2B2B2


*****************************


4000 0 2.2571537 

<starita par Michel BELLON - 2005-05-2
Z:Pour toute observation mailto:galouvielle@free.fr
M:2/4
L:1/8
K:


*****************************


4100 0 2.2325706 

<starig? parielle@free.fr
M:1/4
L:1/8
K:Bb
K:Bb
B/B/B/B/ | B2 B2 | B2 B2 | B2 B2 | B2 B2 | B2 B2 | B2 B2 


*****************************


4200 0 3.4553998 

<starige par Michel BELLON - 2005-07-2
Z:Pour toute observation mailto:galouvielle@free.fr
M:2/4
L:1/8
K:


*****************************


4300 0 0.378108 

<starine Gire cinas (192)
O:France
A:Provence
C:Provence
C:Crance
C:Provence
C:Provence
C:Provence
C:Prov


*****************************


4400 0 2.0943053 

<starig? par Michel BELLON - 2005-07-2
Z:Pour toute observation mailto:galouvielle@free.fr
M:2/4
L:1/8
K:


*****************************


4500 0 3.100985 

<staritalle@free.fr
M:2/4
L:1/8
K:Bb
B BB | BB BB | BB BB | BB BB | B2 BB | BB BB | BB BB | BB BB | BB BB


*****************************


4600 0 2.4666505 

<starig? par Michel BELLON - 2005-07-226
Z:Pour toute observation mailto:galouvielle@free.fr
M:2/4
L:1/8



*****************************


4700 0 1.7471945 

<starig? par Michel BELLON - 2005-06-6
Z:Pour toute observation mailto:galouvielle@free.fr
M:2/4
L:1/8
K:


*****************************


4800 0 1.4553951 

<starig? par Michel BELLON - 2005-07-6
Z:Pour toute observation mailto:galouvielle@free.fr
M:2/4
L:1/8
K:


*****************************


4900 0 1.929032 

<starig? par Michel BELLON - 2005-07-222
Z:Pour toute observation mailto:galouvielle@free.fr
M:2/4
L:1/4



*****************************


5000 0 1.8577687 

<starielle@free.fr
M:1/4
L:1/8
K:Bb
V:1
K:Bb
V:1
V:1
V:1
V:1
K:Bb
V:1
V:1
V:1
K:Bb
V:1
V:1
V:1
V:1
V:1
K:


*****************************


5100 0 3.5570374 

<star Michel BELLON - 2005-07-04
Z:Pour toute observation mailto:galouvielle@free.fr
M:2/4
L:1/8
K:1
V:1



*****************************


5200 0 1.6007401 

<star ta la la la la la la la la la la la la la la la la la la la la la la la la la la la la la la la la 


*****************************


5300 0 1.5548177 

<startin mailt par Michel BELLON - 2005-07-1
Z:Pour toute observation maitto:galouvielle@free.fr
M:2/4
L:


*****************************


5400 0 1.4460869 

<startion mailto:galouvielle@free.fr
M:2/4
L:1/8
K:Gmaj
V:1
GB | G2G2| G2G2 | G2G2 | G2G2 | G2G2 | G2G2 |


*****************************


5500 0 2.6043518 

<startion mailto:galouvielle@free.fr
M:6/8
L:1/8
K:G
V:1
V:1
V:1
V:1
V:1
V:1
K:G
V:1
V:1
V:1
V:1
V: Gmiou


*****************************


5600 0 1.803682 

<startig? par Michel BELLON - 2007-06-06
Z:Pour toute observation mailto:galouvielle@free.fr
M:2/4
L:1/8



*****************************


5700 0 2.6805198 

<startion mailto:galouvielle@free.fr
M:2/4
L:1/8
K:1
V:1
V:1
V:1
V:1
V:1
V:1
V:1
V:1
V:1
V:1
V:1
V:1
V:1



*****************************


5800 0 0.2062263 

<startiet et/ou corrig? par Michel BELLON - 2007-04-04
Z:Pour toute observation mailto:galouvielle@free.f


*****************************


5900 0 1.4399695 

<starte
